public/assets/Sponsors/present/tezos.svg

<svg width="240" height="76" viewBox="0 0 240 76" fill="none" xmlns="http://www.w3.org/2000/svg">
<path d="M95.3965 59.7551H92.6164V17.0841H79.5565C78.6083 17.0841 78.1341 17.5582 78.1341 18.5064V21.6744H75.4187V17.9892C75.4187 16.6531 75.6558 15.7479 76.1299 15.2738C76.6471 14.7566 77.5738 14.498 78.91 14.498H109.103C110.439 14.498 111.344 14.7566 111.818 15.2738C112.336 15.7479 112.594 16.6531 112.594 17.9892V21.6744H109.879V18.5064C109.879 17.5582 109.405 17.0841 108.456 17.0841H95.3965V59.7551Z" fill="#2C7DF7"/>
<path d="M111.577 43.6565C111.577 38.4411 113.108 34.3033 116.168 31.2431C119.228 28.1829 122.935 26.6527 127.288 26.6527C131.469 26.6527 134.702 28.0751 136.986 30.9198C139.314 33.6784 140.477 37.1696 140.477 41.3936L140.348 43.1393H114.422C114.422 47.7081 115.737 51.3071 118.366 53.9363C120.995 56.5655 124.293 57.8802 128.258 57.8802C129.982 57.8802 131.685 57.5784 133.366 56.975C135.047 56.3285 136.318 55.6173 137.18 54.8415L138.279 53.807L139.766 56.0699C139.421 56.4147 138.926 56.8457 138.279 57.3629C137.762 57.794 136.447 58.4405 134.335 59.3025C132.396 60.1215 130.37 60.5309 128.258 60.5309C123.56 60.5309 119.594 58.9793 116.362 55.8759C113.172 52.6864 111.577 48.6132 111.577 43.6565ZM114.616 40.6178H137.633C137.46 36.9541 136.426 34.1309 134.529 32.1482C132.633 30.1655 130.198 29.1742 127.223 29.1742C124.034 29.1742 121.254 30.2087 118.883 32.2775C116.556 34.3033 115.133 37.0834 114.616 40.6178Z" fill="#2C7DF7"/>
<path d="M170.214 59.7551H146.81V57.5569L166.4 32.9241L168.921 29.95V29.8207C167.887 29.9069 166.788 29.95 165.624 29.95H151.077C150.129 29.95 149.655 30.4242 149.655 31.3724V34.1525H147.004V31.1784C147.004 29.8423 147.284 28.894 147.844 28.3337C148.448 27.7303 149.417 27.4286 150.754 27.4286H172.606V29.6268L152.952 54.2596L150.366 57.2336V57.3629C151.486 57.2767 152.607 57.2336 153.728 57.2336H169.891C170.839 57.2336 171.313 56.7595 171.313 55.8113V53.0312H173.964V56.0052C173.964 57.3414 173.662 58.3112 173.059 58.9146C172.499 59.4749 171.55 59.7551 170.214 59.7551Z" fill="#2C7DF7"/>
<path d="M177.998 43.3979C177.998 38.6998 179.615 34.7344 182.847 31.5017C186.123 28.2691 190.088 26.6527 194.744 26.6527C199.399 26.6527 203.342 28.2691 206.575 31.5017C209.851 34.7344 211.489 38.6998 211.489 43.3979C211.489 48.2253 209.851 52.2769 206.575 55.5527C203.342 58.8715 199.399 60.5309 194.744 60.5309C190.132 60.5309 186.166 58.8715 182.847 55.5527C179.615 52.2338 177.998 48.1822 177.998 43.3979ZM180.843 43.3979C180.843 47.4926 182.179 50.9407 184.852 53.7424C187.567 56.5009 190.864 57.8802 194.744 57.8802C198.666 57.8802 201.942 56.5009 204.571 53.7424C207.286 50.9407 208.644 47.4926 208.644 43.3979C208.644 39.4325 207.286 36.0921 204.571 33.3767C201.942 30.6612 198.666 29.3035 194.744 29.3035C190.864 29.3035 187.567 30.6612 184.852 33.3767C182.179 36.1352 180.843 39.4756 180.843 43.3979Z" fill="#2C7DF7"/>
<path d="M216.819 55.5527L216.366 54.9708L218.306 52.9665C218.694 53.4838 219.211 54.0656 219.858 54.7122C222.228 56.8242 225.051 57.8802 228.327 57.8802C230.612 57.8802 232.508 57.3414 234.017 56.2638C235.525 55.1432 236.28 53.6562 236.28 51.8028C236.28 49.1304 234.081 46.9753 229.685 45.3375C225.418 43.7427 222.552 42.385 221.086 41.2643C218.845 39.5402 217.703 37.4713 217.659 35.0576C217.659 32.3853 218.651 30.3164 220.634 28.8509C222.616 27.3855 225.31 26.6527 228.715 26.6527C229.534 26.6527 230.418 26.7605 231.366 26.976C232.314 27.1484 233.284 27.4286 234.275 27.8165C235.31 28.1613 236.15 28.7216 236.797 29.4975C237.486 30.2733 237.831 31.1569 237.831 32.1482V34.6051H235.116V33.0534C235.116 31.8465 234.426 30.9198 233.047 30.2733C231.668 29.6268 230.267 29.3035 228.844 29.3035C223.284 29.3035 220.504 31.1569 220.504 34.8637C220.504 37.5791 222.681 39.7558 227.034 41.3936C231.172 42.9453 233.931 44.1737 235.31 45.0789C237.853 46.846 239.124 49.0873 239.124 51.8028C239.124 54.3458 238.09 56.4362 236.021 58.0741C233.909 59.712 231.323 60.5309 228.263 60.5309C225.461 60.4878 223.069 59.9275 221.086 58.85C219.147 57.7724 217.724 56.6733 216.819 55.5527Z" fill="#2C7DF7"/>
<path d="M35.4351 74.6983C30.1048 74.6983 26.2142 73.4144 23.7633 70.8466C21.4929 68.673 20.1754 65.689 20.0987 62.5468C20.0711 61.5922 20.2923 60.6469 20.7406 59.8036C21.1588 59.0751 21.7629 58.4705 22.4911 58.0518C23.3376 57.6296 24.2706 57.4098 25.2165 57.4098C26.1624 57.4098 27.0953 57.6296 27.9418 58.0518C28.6688 58.4689 29.27 59.074 29.6824 59.8036C30.1437 60.6428 30.3732 61.5896 30.3473 62.5468C30.395 63.6899 30.0671 64.8173 29.4137 65.7565C28.8691 66.5232 28.0908 67.0928 27.1953 67.3799C28.071 68.4948 29.3101 69.2673 30.6967 69.5627C32.2481 70.0133 33.8548 70.245 35.4703 70.2511C37.609 70.2697 39.7038 69.6434 41.4813 68.4537C43.3252 67.151 44.7004 65.2889 45.4028 63.1433C46.2934 60.5896 46.7279 57.8993 46.6867 55.1951C46.7586 52.3759 46.2829 49.5695 45.2861 46.9314C44.5363 44.8215 43.1131 43.0168 41.2361 41.7959C39.4913 40.6918 37.466 40.1125 35.4013 40.127C33.6022 40.2794 31.8674 40.8684 30.3473 41.8428L26.5998 43.7217V41.8428L43.4418 19.249H20.0987V42.6948C20.0327 44.3867 20.4803 46.059 21.3826 47.4918C21.8191 48.1161 22.4095 48.6172 23.0966 48.9464C23.7836 49.2755 24.544 49.4217 25.3041 49.3707C26.7086 49.3423 28.0668 48.8637 29.1788 48.0052C30.4393 47.0815 31.5361 45.9532 32.4237 44.667C32.5036 44.4415 32.6509 44.2461 32.8457 44.1072C33.0021 43.972 33.2018 43.8974 33.4084 43.8971C33.814 43.9341 34.1977 44.0973 34.5057 44.3637C34.8958 44.7996 35.1081 45.366 35.1007 45.9509C35.0557 46.3441 34.9855 46.7339 34.8907 47.1181C34.0614 49.1252 32.6715 50.8508 30.8871 52.0886C29.2298 53.21 27.2724 53.8046 25.2713 53.7945C20.2173 53.7945 16.7161 52.7985 14.7676 50.8066C13.7661 49.7056 12.9942 48.4159 12.4972 47.013C12.0001 45.6101 11.7879 44.1221 11.873 42.6362V19.249H0V14.8928H11.9283V4.96019L9.19733 2.22735V0H17.122L20.0987 1.54086V14.8928L50.9347 14.799L54.0046 17.8802L35.0965 36.8802C36.2388 36.4208 37.4418 36.1299 38.6678 36.0165C41.0943 36.1228 43.4617 36.7985 45.5787 37.9892C48.0301 39.1544 50.096 40.998 51.5316 43.3016C52.8179 45.2515 53.7283 47.4248 54.2161 49.7093C54.6172 51.5113 54.8323 53.3497 54.8581 55.1956C54.8706 58.7184 54.0719 62.1968 52.5238 65.3612C51.0557 68.4255 48.5849 70.8964 45.5205 72.3645C42.3838 73.9101 38.9319 74.7089 35.4351 74.6983V74.6983Z" fill="#2C7DF7"/>
</svg>

<svg width="240" height="76" fill="none" xmlns="http://www.w3.org/2000/svg"><path d="M95.397 59.755h-2.78v-42.67h-13.06c-.949 0-1.423.473-1.423 1.421v3.168H75.42V17.99c0-1.336.237-2.241.71-2.715.518-.517 1.445-.776 2.781-.776h30.193c1.336 0 2.241.259 2.715.776.518.474.776 1.38.776 2.715v3.685h-2.715v-3.168c0-.948-.474-1.422-1.423-1.422h-13.06v42.671Zm16.18-16.098c0-5.216 1.531-9.354 4.591-12.414 3.06-3.06 6.767-4.59 11.12-4.59 4.181 0 7.414 1.422 9.698 4.267 2.328 2.758 3.491 6.25 3.491 10.474l-.129 1.745h-25.926c0 4.57 1.315 8.168 3.944 10.797 2.629 2.63 5.927 3.944 9.892 3.944a15.03 15.03 0 0 0 5.108-.905c1.681-.647 2.952-1.358 3.814-2.133l1.099-1.035 1.487 2.263c-.345.345-.84.776-1.487 1.293-.517.431-1.832 1.078-3.944 1.94a15.464 15.464 0 0 1-6.077 1.228c-4.698 0-8.664-1.552-11.896-4.655-3.19-3.19-4.785-7.263-4.785-12.22Zm3.039-3.04h23.017c-.173-3.663-1.207-6.486-3.104-8.469-1.896-1.983-4.331-2.974-7.306-2.974-3.189 0-5.969 1.035-8.34 3.104-2.327 2.025-3.75 4.805-4.267 8.34Zm55.598 19.138H146.81v-2.198l19.59-24.633 2.521-2.974v-.13c-1.034.087-2.133.13-3.297.13h-14.547c-.948 0-1.422.474-1.422 1.422v2.78h-2.651v-2.974c0-1.336.28-2.284.84-2.844.604-.604 1.573-.905 2.91-.905h21.852v2.198L152.952 54.26l-2.586 2.974v.129c1.12-.086 2.241-.13 3.362-.13h16.163c.948 0 1.422-.473 1.422-1.422v-2.78h2.651v2.974c0 1.336-.302 2.306-.905 2.91-.56.56-1.509.84-2.845.84Zm7.784-16.357c0-4.698 1.617-8.664 4.849-11.896 3.276-3.233 7.241-4.85 11.897-4.85 4.655 0 8.598 1.617 11.831 4.85 3.276 3.232 4.914 7.198 4.914 11.896 0 4.827-1.638 8.879-4.914 12.155-3.233 3.319-7.176 4.978-11.831 4.978-4.612 0-8.578-1.66-11.897-4.978-3.232-3.32-4.849-7.37-4.849-12.155Zm2.845 0c0 4.095 1.336 7.543 4.009 10.344 2.715 2.759 6.012 4.138 9.892 4.138 3.922 0 7.198-1.38 9.827-4.138 2.715-2.801 4.073-6.25 4.073-10.344 0-3.966-1.358-7.306-4.073-10.021-2.629-2.716-5.905-4.074-9.827-4.074-3.88 0-7.177 1.358-9.892 4.074-2.673 2.758-4.009 6.099-4.009 10.02Zm35.976 12.155-.453-.582 1.94-2.004c.388.517.905 1.099 1.552 1.745 2.37 2.112 5.193 3.168 8.469 3.168 2.285 0 4.181-.539 5.69-1.616 1.508-1.12 2.263-2.608 2.263-4.461 0-2.673-2.199-4.828-6.595-6.465-4.267-1.595-7.133-2.953-8.599-4.074-2.241-1.724-3.383-3.793-3.427-6.206 0-2.673.992-4.742 2.975-6.207 1.982-1.465 4.676-2.198 8.081-2.198.819 0 1.703.108 2.651.323.948.172 1.918.453 2.909.84 1.035.345 1.875.906 2.522 1.681.689.776 1.034 1.66 1.034 2.651v2.457h-2.715v-1.552c0-1.206-.69-2.133-2.069-2.78-1.379-.646-2.78-.97-4.203-.97-5.56 0-8.34 1.854-8.34 5.56 0 2.716 2.177 4.893 6.53 6.53 4.138 1.552 6.897 2.78 8.276 3.686 2.543 1.767 3.814 4.008 3.814 6.724 0 2.543-1.034 4.633-3.103 6.271-2.112 1.638-4.698 2.457-7.758 2.457-2.802-.043-5.194-.603-7.177-1.681-1.939-1.078-3.362-2.177-4.267-3.297ZM35.435 74.698c-5.33 0-9.22-1.284-11.672-3.851a11.892 11.892 0 0 1-3.664-8.3c-.028-.955.193-1.9.642-2.743a4.747 4.747 0 0 1 1.75-1.752 6.106 6.106 0 0 1 5.45 0 4.667 4.667 0 0 1 1.741 1.752c.462.839.691 1.786.665 2.743a5.238 5.238 0 0 1-.933 3.21 4.35 4.35 0 0 1-2.219 1.623 6.057 6.057 0 0 0 3.502 2.183 17.35 17.35 0 0 0 4.773.688 10.64 10.64 0 0 0 6.011-1.797 10.503 10.503 0 0 0 3.922-5.31 23.07 23.07 0 0 0 1.284-7.949 21.807 21.807 0 0 0-1.4-8.264 10.201 10.201 0 0 0-4.05-5.135 10.77 10.77 0 0 0-5.836-1.669 11.09 11.09 0 0 0-5.054 1.716L26.6 43.722v-1.88L43.442 19.25H20.099v23.446a8.388 8.388 0 0 0 1.284 4.797 4.424 4.424 0 0 0 3.921 1.879 6.557 6.557 0 0 0 3.875-1.366 13.989 13.989 0 0 0 3.245-3.338c.08-.226.227-.42.422-.56a.862.862 0 0 1 .562-.21c.406.037.79.2 1.098.467.39.436.602 1.002.595 1.587a9.273 9.273 0 0 1-.21 1.167 11.302 11.302 0 0 1-4.004 4.97 9.931 9.931 0 0 1-5.616 1.706c-5.054 0-8.555-.995-10.503-2.987a11.192 11.192 0 0 1-2.895-8.17v-23.39H0v-4.356h11.928V4.96l-2.73-2.733V0h7.924l2.977 1.54v13.353l30.836-.094 3.07 3.081-18.909 19c1.143-.46 2.346-.75 3.572-.864a15.48 15.48 0 0 1 6.91 1.973 14.194 14.194 0 0 1 5.954 5.313 18.745 18.745 0 0 1 2.684 6.407c.401 1.802.616 3.64.642 5.487a22.947 22.947 0 0 1-2.334 10.165 14.908 14.908 0 0 1-7.004 7.004 22.662 22.662 0 0 1-10.085 2.333Z" fill="#2C7DF7"/></svg>
